X: 1710
T: Mick Pilley's Varsovianna
B: australian traditional tunes wiki
M:3/4
L:1/8
R: Varsovienne
Q: 1/4=100
K:D
V:1 
A||"D"f>ed2B2|A4A2|f>ed2b2|"A"a4a>a|b>a g>f e<d|c4A2|(3aaa a2a2|"D"f4A>d|
"D"f>ed2B2|A4(3ABd|f>ed2b2|"A"a4(3a^ga|b>a g>f e>d|c4A2|(3[Aa][Aa][Aa][A2a2][A2a2]|"D"[D4d4]A>d||
||"D"(3fff f2f>f|(3fff f2f>f|(3fff f2[A2a2]|[D4d4]A>d|"G"(3ggg g2g>f|(3ggg g2g>f|(3ggg g2B2|"A"e4A>d|
"D"(3fff f2f>f|"G"(3ggg g2g>g|"A"(3aaa a2a>b|a4(3a^ga|b>ag2c2|a>fg2c2|(3agf g2c2|"D"[D6d6]||
% abcbook-tune_id 6342d53ad1d2f3195fdbe245


% abcbook-boost 0
% abcbook-tablature 
% abcbook-transpose 
% abcbook-lastupdated 1665324379280
% abcbook-soundfonts 
% abcbook-repeats 1
% NFF Book 2013

